X:70
T:Woodford Assembly THO4.070
M:C|
L:1/8
Z:vmp. Peter Dunk 2010/11.from a transcription by Fynn Titford-Mock 2007
B:Thompson's Compleat Collection of 200 Favourite Country Dances Volume IV.
Q:1/2=80
K:A
a2 ec dfBd|ceAc BE E2|a2 ec f3 a|gfe^d e2E2::\
efec dBTB2|dBbd cA TA2|a2 ec B3 f|edcB A4:|
